X:091
T:New Floating Battery TS.091
M:C|
L:1/8
Q:1/2=88
S:Thomas Sands’ MS,1810,Lincolnshire
R:.hornpipe
O:England;Lincolnshire
Z:vmp.Ruairidh Greig, 2011
K:A
A|(AB)(cd) e2(cA)|(fg)af {f}”tr”e2 dc|defd cdec|Aca(c{c}B3)A|
(AB)(cd)e2 (dc)|fga(A {A}G2) (FE)|dfdB cecA|E2[A2C2][A3C3]:|
|:a|(ag)”tr”fe fedc|defa AGFE|Ac”tr”BA Bd”tr”cB|ceac{c}”tr”B3a|
(ag)”tr”(fe) “tr”(fe)(dc)|(dF)”tr”(BA) (AG)(FE)|ABcd ecac|E2[A2C2][A3C3]:|]

